X: 1544
T: Oldu Gönül Üftâde
C: Dede Efendi
O: Turkey
F: http://compmusic.upf.edu/node/140
N: acemasiran--sarki--aksak--oldu_gonul--dede_efendi
N: makam= acemasiran
N: form= sarki
N: usul= aksak = 9/8
M: 9/8
L: 1/16
K: C _B   
Q: 1/4=138
%%MIDI tuningsystem comma53
e2f2 g2a2 g2f2 e2d2 c2 | c2 d2e2 f2e2 d2c2 B2A2  | \
w:  ARANAĞME  |   | 
G2A2 B2c2 d2c2 B2A2 G2 | 
w:   | 
A2 G2F2 E2F4f6  | e2f2 g2a2 g2f2 e2d2 c2 | \
w:   |  ARANAĞME  | 
c2 d2e2 f2e2 d2c2 B2A2  | 
w:   | 
G2A2 B2c2 d2c2 B2A2 G2 | A2 G2F2 E2F8z2  | \
w:   |   | 
f4 e2f2 f2e2 f4 e2 | 
w:  Ol *  *  du   | 
d2 z2g2 b2a2 g2f2 e2g2  | f4 z2g2 abag fed^c d2 | 
w:  *  gö nül  üf *  tâ  |  de  a  câ *  *  *  nım    | 
d4^c2 _7/8e2d2 c2d4c2  | d4 A2B2 A4 ^G4 B2 | \
w:  Bir  *  *  şâh_  |  *  ı  ci hâ nım   | 
A6 _1/4B2cd cBc6  | c2d4c2 c2B2 A4 G2 | 
w:  var    |  Bir  *  *  şâh_  | 
F4G2 B2A2 G2F2 E2G2  | F6g2 agfg a6 | \
w:  *  ı  ci hâ *  nım   |  var   *  SAZ  | 
g6 a2a4c'2 b2a2  | 
w:  Â *  lem  | 
a3g g2b2 a2g2 f2e2 g2 | f4z2 g2ab agfe d^cd2  | 
w:  *  *  le re  nâ  *  mef  |  tûn  a  câ *  *  *  nım    | 
d4 ^c2_7/8e2 d2c2 d4 c2 | d4A2 B2A4^G4B2  | \
w:  Bir  *  *  şâh_  |  *  ı  ci hâ nım   | 
A6_1/4B2 cdcB c6 | c2 d4 c2c2 B2A4G2  | 
w:  var    |  Bir  *  *  şâh_  | 
F4 G2B2 A2G2 F2E2 G2 | F6 F2E2 G2F4z2  | |


